X:105
T:The Top of Cork Road
T:Father O'Flynn
M:6/8
L:1/8
S:D
R:Jig
K:D
dAF DFA | Bed cBA | dcd efg | fdf ecA | dAF DFA | Bed cBA | dcd efg |1 f
dc d2A :|2 fdc d2e ||
|:fdf fga | ece efe | dcd fed | cAA A2=c | BGB Bcd | AFA ABc | dcd efg |
fdc d2e ||
